X:7
T:A Fig for a Kiss
R:slip jig
S:Mike Long
O:Ireland
M:9/8
L:1/8
K:G
"Em" G2 B E2 B BAG | "D" F2 A D2 A AGF | "Em" G2 B    E2  B    BAG | "G" B/c/dB "D" AGF "Em" E3 :|
"Em" g2 e g2 e edB | "D" f2 d dcd  fed | "Em" g2 e    g2  e    edB | "G" dBG  GBd      "D" e2 f |
"Em" g2 e g2 e edB | "D" f2 d dcd  fed | "Em" gfe "D" fed "Em" edB | "G" BdB  "D" AGF   "Em" E3 |]
